X:21
T:Troy's Wedding
M:6/8
L:1/8
C:C. Magee
R:Jig
K:D
B|"D"AAA d2c|"G"BBB "Em"e2d|"A"cAA ABc|"D"dcd f2d|"D"AAA d2c|"G"BBB "Em"
e2d|!"A"caa gee|"A"ABc "D"d2:||:f|"Em"gee "A"ege|"D"fdd dfd|"A"ecA ABc|"
D
"dcd f2d|!"Em"gee "A"ege|"D"fdB  A2d|"A"caa gee|"A"ABc "D"d3|"Em"gee "A"
e
ge|"D"fdd dfd|!"A"ecA ABc|"D"dcd f2d|"G"BGG Bcd|"D"Add f2d|"A"caa gee|"A
"
ABc "D"d3|!|:"A"Aaa Bac|"A"aad aea|"D"faa gec|"D"dcd f2d|"A"Aaa Bac|"A"a
a
d aea|!"D"faa "A"gee|"A"ABc "D"d3:||:"A"Acc cee|"D"Add dff|"A"ecA ABc|
"D"dcd f2d|!"A"AcA ecA|"D"AdA f2d|"A"caa gee|"A"ABc "D"d3|"A"AcA ecA|"D"
AdA
fdA|!"A"ecA Abc|"D"dcd f2d|"G"BGG Bcd|"D"Add f2d|"A"caa gee|"A"ABc "D"d3
||
